X:1
T:Title
%%score { ( 1 3 ) | ( 2 4 ) }
L:1/8
M:6/4
K:Bb
V:1 treble nm="Grand Piano"
V:3 treble 
V:2 bass 
V:4 bass 
V:1
 z4[Q:1/4=62] [DB]2- [DB]2 | [Fd]2 [FB]2 c2- c2 c4 | B2 A2 [DFB]2- [DFB]2 [Fd]4 | %3
 [Ec]2 [DB]2 [Ge]2- [Ge]2 [Fd]4 | [Fc]2 Bd c2- c2 F4 | B2 B2 B2- B2 B4 | %6
 d2 d2 [Bd]2- [Bd]2 [Bd]3 c | B2 B2 B2- B2 [DG]4 | .[CFc]2 [Fc]2 [Fc]2- [Fc]2 [Fd]4 | %9
[M:4/4] z2 B2 z4 | z2 c2 c2 z2 | e2 z2 c4 | [DB]8 |] %13
V:2
 z4 [B,,F,]2- [B,,F,]2 | [B,,B,]2 [D,B,]2 [F,A,F]2- [F,A,F]2 [F,A,E]4 | %2
 [G,B,D]2 [F,CF]2 B,,2- B,,2 [B,,B,]4 | [F,A,]2 [G,B,]2 [E,B,]2- [E,B,]2 [B,,B,]4 | %4
 [C,A,]2 D,B,, [F,A,F]2- [F,A,F]2 F,4 | B,2 B,2 B,2- B,2[K:treble] [G,B,D]4 | %6
 [G,B,D]2 [G,B,G]2 [G,B,]2- [G,B,]2 B,3 [CA] | [B,D]2 [B,DF]2 [B,DF]2- [B,DF]2[K:bass] z2 B2 | %8
 z B,A,G, F,2- F,2 [D,B,]4 |[M:4/4] B,2- [B,G]2 [DG]2 [B,,B,]2 | F2 F2 .[A,F]2[K:bass] [F,B,E]2 | %11
 z4 F2 z2 | [B,,B,]8 |] %13
V:3
 x8 | x12 | x12 | x12 | z2 .[B,F]4 z6 | x12 | x12 | x12 | x12 |[M:4/4] [GB]2 z C B2 [Fd]2 | %10
 c2 z B, z G, B2 | G2- [Gd]2 z2 E2 | x8 |] %13
V:4
 x8 | x12 | x12 | x12 | x12 | x8[K:treble] x4 | z6 z2 F,4 | z6 z2[K:bass] B,,4 | .F,6 z6 | %9
[M:4/4] E,6 z2 | [F,-C]4 F,2[K:bass] z2 | [E,B,]4 [F,A,]4 | x8 |] %13

